X:1
%
T:Jerry Daly's Hornpipe [2]
M:C|
L:1/8
R:Hornpipe
S:O'Neill - Music of Ireland (1903), No. 1591
Z:AK/Fiddler's Companion
K:A
(ed) | c2 (Bc) ABcA | GFEF GABd | (ef)(fa) gedc | B2G2G2 (ed) |
c2 (Bc) ABcA | GFEF GABd | (eg)(fa) gedB | A2A2A2 :|
|: e2 | agab aged | B2G2G2 (ef) | {a}gfga gfed | e2a2a2 (ed) |
c2 (Bc) ABcA | GFEF GABd | (eg)(fa) gedB | A2A2A2 :|

